X:1
T: Play A B A B
C:Bruce Shawyer
R:Reel
Q:232
K:D
M:4/4
L:1/8
|:A2|"D"dAFA "G"dBGB|"D"dAFA "G"dBGB|"D"dAFA "B7"BAGF|"Em"GFED "A7"E2A2|
"D"dAFA "G"dBGB|"D"dAFA "G"d4|"A7"edcB AGFE|"D"D2D2 D2A2|
"D"Adfd "G"Bdgd|"D"Adfd f2f2|"Em"gfed edcB|"A7"cBAG A4|
"D"Adfd "G"Bdgd|"D"Adfd "G"f2f2|"Em"gfed "A7"cABc|"D"d2d2 d2:|
